X: 10562
T: THE STEAMBOAT HORNPIPE
C: Arranged by W. B. Laybourn
R: hornpipe
B: K\"ohler's Violin Repository, v.1, 1885 p.56 #2
F: http://www.archive.org/details/klersviolinrepos01edin
Z: 2011 John Chambers <jc:trillian.mit.edu>
M: C|
L: 1/8
K: G
((3udef) |\
g2b>g d2g>d | (B>c)d>B G2B>G | [E2C2]A>G (F>A)d>c | c2B2 [B2G2]((3def) |
g2b>g d2g>d | (B>c)d>B G2A>B | cedc BGAF | G2B2 B2 :: (B>c) |
dBdB g2(gf) | ecec a2(ag) | (f>e)f>d (g>f)g>b | agfe de.^e.f |
g2b>g d2g>d | (B>c)d>B G2A>B | cedc BGAF | G2B2 G2 :|

%%sep 2 1 500

